X: 9
T:Morrison's Jig
T:Porth Mhuirgheasa
R:Jig
C:(Al's Jig #3)
M:6/8
L:1/8
Q:3/8=120
K:Edor
~E3 BEB|EBE AFD|~E3 BEB|dcB AFD|~E3 BEB|EBE AFD|~G3 FGA|BAG FED:|
Bee fee|aee fed|Bee fee|a2g fed|Bee fee|aee fed|gfe d2A|BAG FED|
Bee fee|aee fed|Bee fee|a2f def|~g3 gfe|def g2d|edc d2A|BAG FED|
